symbols/web/schema/materialsymbolsoutlined/schema_grad200_24px.svg

<svg xmlns="http://www.w3.org/2000/svg" height="24" width="24"><path d="M3.675 23.325V16.675H6.175V15.325H3.675V8.675H6.175V7.325H3.675V0.675H11.325V7.325H8.825V8.675H11.325V10.675H13.675V8.675H21.325V15.325H13.675V13.325H11.325V15.325H8.825V16.675H11.325V23.325ZM6.325 20.675H8.675V19.325H6.325ZM6.325 12.675H8.675V11.325H6.325ZM16.325 12.675H18.675V11.325H16.325ZM6.325 4.675H8.675V3.325H6.325ZM7.5 4ZM7.5 12ZM17.5 12ZM7.5 20Z"/></svg>

<svg xmlns="http://www.w3.org/2000/svg" height="24" width="24"><path d="M3.675 23.325v-6.65h2.5v-1.35h-2.5v-6.65h2.5v-1.35h-2.5V.675h7.65v6.65h-2.5v1.35h2.5v2h2.35v-2h7.65v6.65h-7.65v-2h-2.35v2h-2.5v1.35h2.5v6.65Zm2.65-2.65h2.35v-1.35h-2.35Zm0-8h2.35v-1.35h-2.35Zm10 0h2.35v-1.35h-2.35Zm-10-8h2.35v-1.35h-2.35ZM7.5 4Zm0 8Zm10 0Zm-10 8Z"/></svg>
